X:82 
T:Pipe Gavotte 
B:OFPC4.159 (as "Gavot")
C:file ID: ofpc.4/082pgav
N:An interesting piece whose accidentals will probably
scare off the majority of traditional musicians!
Q:160
M:C|
L:1/8
R:hornpipe
K:D
A|d2fd A2^A2|B2dA F2A2|Bdce dfeg|faBe dcBA|
"5"d2fd A2^A2|B2dA F2A2|Bdce dfeg|face d3 :|
%
z|"9"fdcB ecBA|dfba ^gfed|c2A2 ^G2B2|A2c2 B2a2|
"13"^gbg[ac'] B2d2|ceAc dfBd|cBA^G A3B|=c2A2 B2d2|
"17"dcBA B2G2|A2F2 G2B2|BAGF A2F2|G2E2 F2dA|
"21"B2ge dfaf|gfed dcBA|d2fd A2^A2|B2dA F2A2|
"25"Bdce dfeg|faBe dcBA|d2fd A2^A2|B2dA F2A2|
"29"Bdce dfeg|face d4-|d4z4 |]

